!!!!SEGMENT: pl-kk--kk-i-1--037_anonim--suscepimus-deus.krn
!!!cenid: 15xx:750
!!!COM: Anonim
!!!COM-rismid: pe30004985
!!!CDT:
!!!CNT:
!!!OTL: Suscepimus Deus
!!!PDT:
!!!AGN:
!!!SMS-siglum: PL-Kk
!!!SMS-shelfmark: Kk.I.1
!!!SMS-shelfwork: 037 W
!!!SMS-variant:
!!!SMS-altvar:
!!!NIFC-rismid: 300257991
!!!URL-scan: http://repozytorium.nifc.pl/skany/pl-kk-nut--i-1
!!!ONB-nifc: UWAGA: Cantus (s. 131r-133r, skan 0133-0135), Altus (s. 126r-128r, skan 0319-0321), Tenor (s. 110v-111r, skan 0501), Bassus (s. 119r-120v, skan 0681-0683).
**kern	**text	**kern	**text	**kern	**text	**kern	**text
*part4	*part4	*part3	*part3	*part2	*part2	*part1	*part1
*staff4	*staff4	*staff3	*staff3	*staff2	*staff2	*staff1	*staff1
*Iempty	*	*Itenor	*	*Iempty	*	*Iempty	*
*I"BASSVS	*	*I"TENOR	*	*I"ALTVS	*	*I"CANTVS	*
*I'B	*	*I'T	*	*I'A	*	*I'C	*
*clefF4	*	*clefC4	*	*clefC4	*	*clefC3	*
*k[b-]	*	*k[b-]	*	*k[b-]	*	*k[b-]	*
*F:	*	*F:	*	*F:	*	*F:	*
*M2/1	*	*M2/1	*	*M2/1	*	*M2/1	*
*met(C)	*	*met(C)	*	*met(C)	*	*met(C)	*
=1-	=1-	=1-	=1-	=1-	=1-	=1-	=1-
!	!	!LO:TX:t=P:problem:brak bemola przy kluczu	!	!	!	!	!
1C/	Su-	1C/	Su-	2r	.	2.c/	Su-
.	.	.	.	1c\	Su-	.	.
.	.	.	.	.	.	4B-/	.
*	*	*lig	*	*	*	*	*
1D\	-ſce-	1F/	-ſce-	.	.	4A/	.
.	.	.	.	.	.	4F/	.
.	.	.	.	2B-\	-ſce-	1f\	-ſce-
=2-	=2-	=2-	=2-	=2-	=2-	=2-	=2-
2C/	-pi-	1G/	.	2c\	-pi-	.	.
2C/	-m(us)	.	.	2c\	-mus	2e\	-pi-
*	*	*Xlig	*	*	*	*	*
2.D/	De-	1F/	-pi-	4A/	.	2f\	-mus
.	.	.	.	4G/	.	.	.
.	.	.	.	4F/	De-	1d\	.
4C/	.	.	.	4E/	.	.	.
=3-	=3-	=3-	=3-	=3-	=3-	=3-	=3-
2BB-/	.	1F/	-mus	4D/	.	.	.
.	.	.	.	4E/	.	.	.
2AA/	.	.	.	1F/	.	2c/	De-
*	*	*lig	*	*	*	*	*
1GG/	.	1G/	De-	.	.	1B-/	.
.	.	.	.	2E/	.	.	.
=4-	=4-	=4-	=4-	=4-	=4-	=4-	=4-
2FF/	-us	1A\	.	1F/	-us	2A/	-us
1F\	.	.	.	.	.	2c/	De-
*	*	*Xlig	*	*	*	*	*
*	*	*lig	*	*	*	*	*
.	.	1G/	.	2r	.	2d\	.
!	!	!	!	!LO:SIC:v:t=custos d	!	!	!
2E\	De-	.	.	2c\	De-	2e\	.
!	!	!	!	!LO:LB:g=original	!	!	!
=5-	=5-	=5-	=5-	=5-	=5-	=5-	=5-
!	!	!	!	!	!	!LO:SIC:v:t=custos d	!
2.D/	.	1F/	.	0d\	-us	0f\	.
4E\	.	.	.	.	.	.	.
*	*	*Xlig	*	*	*	*	*
!LO:SIC:v:t=custos BB-	!	!	!	!	!	!	!
1F\	.	1D/	-us	.	.	.	.
!LO:LB:g=original	!	!	!	!	!	!LO:LB:g=original	!
=6-	=6-	=6-	=6-	=6-	=6-	=6-	=6-
2BB-/	-us	1D/	mi-	1.d\	mi-	2d\	-us
2GG/	mi-	.	.	.	.	2.g\	mi-
*	*	*lig	*	*	*	*	*
1D\	-ſe-	1F/	-ſe-	.	.	.	.
.	.	.	.	.	.	4f\	.
.	.	.	.	2B-\	-ſe-	1f\	.
=7-	=7-	=7-	=7-	=7-	=7-	=7-	=7-
1C/	-ri-	1G/	.	1c\	-ri-	.	.
.	.	.	.	.	.	2e\	.
*	*	*Xlig	*	*	*	*	*
2.D/	-cor-	1F/	-ri-	2A\	-cor-	2.f\	-ſe-
.	.	.	.	1B-\	.	.	.
4C/	.	.	.	.	.	4e\	.
=8-	=8-	=8-	=8-	=8-	=8-	=8-	=8-
2BB-/	.	1F/	-cor-	.	.	2d\	.
2AA/	-di-	.	.	2c\	.	2c/	.
!	!	!LO:SIC:v:t=custos F	!	!	!	!	!
2BB-/	-am	1F/	-di-	2d\	.	2B-/	-ri-
2C/	.	.	.	1c\	.	4A/	-cor-
.	.	.	.	.	.	4G/	.
!	!	!LO:LB:g=original	!	!	!	!	!
=9-	=9-	=9-	=9-	=9-	=9-	=9-	=9-
*	*	*lig	*	*	*	*	*
1D\	tu-	1F/	-am	.	.	2F/	-di-
.	.	.	.	2B-\	-di-	1f\	-am
1C/	.	1G/	.	2.c\	-am	.	.
.	.	.	.	.	.	2e\	tu-
.	.	.	.	4B-\	.	.	.
*	*	*Xlig	*	*	*	*	*
=10-	=10-	=10-	=10-	=10-	=10-	=10-	=10-
*	*	*lig	*	*	*	*	*
1FF/	-am	1A\	.	4A/	.	2f\	-a(m),
.	.	.	.	4G/	.	.	.
.	.	.	.	1F/	.	2c/	tu-
2r	.	1G/	.	.	.	2d/	.
*	*ij	*	*	*	*	*	*
2C/	mi-	.	.	2E/	.	2e\	.
*	*	*Xlig	*	*	*	*	*
=11-	=11-	=11-	=11-	=11-	=11-	=11-	=11-
*	*	*lig	*	*	*	*	*
2D/	.	1F/	tu-	2F/	.	2.d\	.
4BB-/	-ſe-	.	.	2B-\	tu-	.	.
!	!	!	!	!	!	!LO:SIC:v:t=custos f	!
4C/	.	.	.	.	.	4e\	.
!	!	!	!	!	!	!LO:LB:g=original	!
4D/	.	1D/	.	2A\	.	2f\	.
4E/	.	.	.	.	.	.	.
!	!	!	!	!LO:SIC:v:t=custos c	!	!	!
1F\	.	.	.	2B-\	.	2d\	.
*	*	*Xlig	*	*	*	*	*
!	!	!	!	!LO:PB:g=original	!	!	!
=12-	=12-	=12-	=12-	=12-	=12-	=12-	=12-
*	*	*lig	*	*	*	*	*
.	.	1C/	.	2.c\	.	1g\	.
!LO:SIC:v:t=custos F	!	!	!	!	!	!	!
2E\	-ri-	.	.	.	.	.	.
.	.	.	.	4B-\	.	.	.
!LO:LB:g=original	!	!	!	!	!	!	!
2F\	-cor-	1D/	.	2A/	.	2.f\	.
1BB-/	-di-	.	.	2B-/	.	.	.
.	.	.	.	.	.	4e\	.
*	*	*Xlig	*	*	*	*	*
=13-	=13-	=13-	=13-	=13-	=13-	=13-	=13-
*	*	*lig	*	*	*	*	*
.	.	1F/	.	2F/	.	2d\	.
4AA/	.	.	.	2B-/	.	4c/	.
4GG/	.	.	.	.	.	4B-/	.
2FF/	-am	1A\	.	4A/	.	2c/	.
.	.	.	.	4B-/	.	.	.
2AA/	tu-	.	.	2c\	.	1f\	.
*	*	*Xlig	*	*	*	*	*
=14-	=14-	=14-	=14-	=14-	=14-	=14-	=14-
*	*	*lig	*	*	*	*	*
2BB-/	.	1G/	-am,	2d\	.	.	.
2C/	.	.	.	2c\	.	2e\	-am
2FF/	-am	1F/	.	2A/	-am	1f\	.
*	*Xij	*	*	*	*	*	*
2F\	in	.	.	2A/	.	.	.
*	*	*Xlig	*	*	*	*	*
=15-	=15-	=15-	=15-	=15-	=15-	=15-	=15-
2D/	.	1A\	in	1F/	in	2r	.
2F\	me-	.	.	.	.	2d\	in
1E\	-di-	1c\	me-	1G/	me-	2e\	me-
.	.	.	.	.	.	2g\	-di-
=16-	=16-	=16-	=16-	=16-	=16-	=16-	=16-
*	*	*lig	*	*	*	*	*
1D\	-o	1d\	.	2A/	-di-	1f\	-o
.	.	.	.	1A\	-o	.	.
*	*	*	*	*	*	*	*ij
2r	.	1c\	.	.	.	2e\	in
2AA/	in	.	.	4G/	.	2.e\	me-
.	.	.	.	4F/	.	.	.
*	*	*Xlig	*	*	*	*	*Xij
=17-	=17-	=17-	=17-	=17-	=17-	=17-	=17-
!	!	!	!	!LO:SIC:v:t=custos F	!	!	!
2C/	me-	1A\	-di-	2E/	in	.	.
.	.	.	.	.	.	4d\	.
!	!	!	!	!LO:LB:g=original	!	!	!
!	!	!	!	!	!	!LO:SIC:v:t=custos c	!
2D/	-di-	.	.	2F/	.	1d\	.
1AA/	-o	1A\	-o	1E/	me-	.	.
!	!	!	!	!	!	!LO:LB:g=original	!
.	.	.	.	.	.	2c/	-di-
=18-	=18-	=18-	=18-	=18-	=18-	=18-	=18-
*	*	*lig	*	*	*	*	*
1D\	.	1F/	tem-	2D/	-di-	2d/	-o
.	.	.	.	2A/	-o	2f\	tem-
2.AA/	tem-	1A\	.	2.c\	tem-	1.e\	.
!LO:SIC:v:t=custos C	!	!	!	!	!	!	!
4BB-/	.	.	.	4B-\	.	.	.
*	*	*Xlig	*	*	*	*	*
!LO:PB:g=original	!	!	!	!	!	!	!
=19-	=19-	=19-	=19-	=19-	=19-	=19-	=19-
2C/	-pli	1G/	-pli	4G/	-pli	.	.
.	.	.	.	4A/	.	.	.
4GG/	tu-	.	.	4B-\	.	2d\	-pli
4AA/	.	.	.	4c\	.	.	.
*	*	*lig	*	*	*	*	*
4BB-/	.	1F/	tu-	2d\	.	2d\	tu-
4C/	.	.	.	.	.	.	.
4D/	.	.	.	2.A/	tu-	2d\	-i
4E/	.	.	.	.	.	.	.
=20-	=20-	=20-	=20-	=20-	=20-	=20-	=20-
2F\	.	1A\	.	.	.	2c/	tem-
.	.	.	.	4G/	.	.	.
2.D/	.	.	.	4F/	.	2.f\	-pli
.	.	.	.	4E/	.	.	.
*	*	*Xlig	*	*	*	*	*
*	*	*lig	*	*	*	*	*
.	.	1F/	.	2D/	.	.	.
4C/	.	.	.	.	.	4e\	tu-
4BB-/	.	.	.	1F/	.	4d/	.
4AA/	.	.	.	.	.	4c/	.
=21-	=21-	=21-	=21-	=21-	=21-	=21-	=21-
!	!	!LO:SIC:v:t=custos A	!	!	!	!	!
1GG/	.	1G/	.	.	.	2B-/	.
.	.	.	.	2E/	.	2G/	.
*	*	*Xlig	*	*	*	*	*
!	!	!LO:LB:g=original	!	!	!	!	!
*	*	*lig	*	*	*	*	*
4FF/	.	1A\	.	2F/	.	2.c/	.
4GG/	.	.	.	.	.	.	.
!	!	!	!	!LO:SIC:v:t=custos B-	!	!	!
4AA/	.	.	.	1c\	.	.	.
4BB-/	.	.	.	.	.	4d/	.
=22-	=22-	=22-	=22-	=22-	=22-	=22-	=22-
2C/	.	1G/	.	.	.	2e\	.
!	!	!	!	!LO:LB:g=original	!	!	!
2D/	.	.	.	2B-\	.	1f\	.
*	*	*Xlig	*	*	*	*	*
1C/	.	1G/	-i,	2c\	-i,	.	.
.	.	.	.	4r	.	2e\	.
.	.	.	.	4c\	ſe-	.	.
=23-	=23-	=23-	=23-	=23-	=23-	=23-	=23-
!	!	!	!	!	!	!LO:SIC:v:t=custos f	!
2FF/	-i	1A\	ſe-	2c\	-cu(n)-	1f\	-i,
!LO:SIC:v:t=custos F	!	!	!	!	!	!	!
2F\	ſe-	.	.	2A/	-du(m)	.	.
!LO:LB:g=original	!	!	!	!	!	!LO:LB:g=original	!
2F\	-cun-	1A\	-cun-	1d\	no-	2f\	ſe-
2D/	-du(m)	.	.	.	.	2f\	-cun-
=24-	=24-	=24-	=24-	=24-	=24-	=24-	=24-
*	*	*lig	*	*	*	*	*
1G\	no-	1G/	-du(m)	2G/	-me(n)	2d\	-d(um)
.	.	.	.	2B-/	.	1g\	no-
2C/	-me(n)	1c\	.	2G/	tu-	.	.
2F\	ſe-	.	.	2A/	.	2c/	-me(n)
*	*	*Xlig	*	*	*	*	*
=25-	=25-	=25-	=25-	=25-	=25-	=25-	=25-
2E/	-cu(n)-	1c\	no-	1G/	.	1e\	tu-
2C/	-du(m)	.	.	.	.	.	.
*	*	*lig	*	*	*	*	*
1D\	no-	1B-\	-me(n)	1F/	-um	2d/	-u(m)
*	*	*	*	*	*	*	*ij
.	.	.	.	.	.	1f\	no-
=26-	=26-	=26-	=26-	=26-	=26-	=26-	=26-
*	*	*	*	*	*ij	*	*
1C/	-me(n)	1c\	.	2.G/	ſe-	.	.
.	.	.	.	.	.	2e\	.
.	.	.	.	4F/	.	.	.
*	*	*Xlig	*	*	*	*	*
*	*	*lig	*	*	*	*	*
2D/	tu-	1A\	tu-	2D/	.	2f\	-me(n)
2F\	.	.	.	1d\	-cu(n)-	2d\	tu-
=27-	=27-	=27-	=27-	=27-	=27-	=27-	=27-
1E\	-um,	1G/	.	.	.	2e\	.
.	.	.	.	2c\	.	1g\	.
*	*	*Xlig	*	*	*	*	*
*	*	*lig	*	*	*	*	*
1D\	.	1A\	.	2.d\	-du(m)	.	.
.	.	.	.	.	.	2f\	.
.	.	.	.	4c\	.	.	.
=28-	=28-	=28-	=28-	=28-	=28-	=28-	=28-
2r	.	1G/	.	4B-/	.	2g\	.
!	!	!	!	!LO:SIC:v:t=custos B-	!	!	!
.	.	.	.	4A/	.	.	.
!	!	!	!	!LO:LB:g=original	!	!	!
2GG/	do-	.	.	2B-/	no-	2d/	-u(m)
*	*	*Xlig	*	*	*	*	*Xij
2.D/	.	1F/	-um	2A/	-me(n)	2.f\	do-
.	.	.	.	2.B-/	tu-	.	.
4C/	.	.	.	.	.	4e\	.
=29-	=29-	=29-	=29-	=29-	=29-	=29-	=29-
*	*	*lig	*	*	*	*	*
2BB-/	.	1F/	Do-	.	.	2d/	.
.	.	.	.	8A/L	.	.	.
.	.	.	.	8G/J	.	.	.
2AA/	.	.	.	1F/	.	2c/	.
!LO:SIC:v:t=custos FF	!	!	!	!	!	!LO:SIC:v:t=custos A	!
1GG/	-mi-	1G/	.	.	.	1B-/	-mi-
.	.	.	.	2E/	.	.	.
*	*	*Xlig	*	*	*	*	*
!LO:LB:g=original	!	!	!	!	!	!LO:LB:g=original	!
=30-	=30-	=30-	=30-	=30-	=30-	=30-	=30-
*	*	*lig	*	*	*	*	*
2FF/	-ne;	1A\	-mi-	1F/	-um	2A/	-ne,
*	*	*	*	*	*Xij	*	*ij
2AA/	do-	.	.	.	.	2c/	do-
2BB-/	.	1G/	.	2r	.	2d/	.
2C/	.	.	.	1c\	do-	2e\	.
*	*	*Xlig	*	*	*	*	*
=31-	=31-	=31-	=31-	=31-	=31-	=31-	=31-
*	*	*lig	*	*	*	*	*
1D\	.	1F/	.	.	.	4d\	-mi-
.	.	.	.	.	.	4e\	.
.	.	.	.	2B-\	-mi-	4f\	.
.	.	.	.	.	.	4d\	.
2C/	.	1G/	.	2c\	.	2e\	.
2BB-/	.	.	.	2d\	.	1f\	.
*	*	*Xlig	*	*	*	*	*
=32-	=32-	=32-	=32-	=32-	=32-	=32-	=32-
*	*	*lig	*	*	*	*	*
1C/	-mi-	1G/	-ne,	2.c\	.	.	.
.	.	.	.	.	.	2e\	.
.	.	.	.	4B-\	-ne,	.	.
2FF/	-ne,	1F/	.	2A/	.	2f\	.
2BB-/	i-	.	.	2B-\	i-	2d/	-ne
*	*	*Xlig	*	*	*	*	*Xij
=33-	=33-	=33-	=33-	=33-	=33-	=33-	=33-
*	*	*lig	*	*	*	*	*
2AA/	-ta	1F/	i-	2c\	-ta	2c/	i-
2BB-/	et	.	.	2d\	et	2B-/	-ta
!	!	!LO:SIC:v:t=custos F	!	!	!	!	!
2.GG/	laus	1G/	.	2.d\	laus	2.B-/	et
!	!	!	!	!LO:SIC:v:t=custos B-	!	!	!
4AA/	.	.	.	4c\	.	4c/	.
!	!	!LO:LB:g=original	!	!	!	!	!
*	*	*Xlig	*	*	*	*	*
!	!	!	!	!LO:PB:g=original	!	!	!
=34-	=34-	=34-	=34-	=34-	=34-	=34-	=34-
2BB-/	.	1F/	-ta	2B-/	.	2d/	laus
2C/	.	.	.	2.A/	tu-	1c\	.
1D\	tu-	1F/	et	.	.	.	.
.	.	.	.	4G/	.	.	.
.	.	.	.	1F/	.	2B-/	tu-
=35-	=35-	=35-	=35-	=35-	=35-	=35-	=35-
*	*	*lig	*	*	*	*	*
!	!	!	!	!	!	!LO:SIC:v:t=custos c	!
1C/	.	1G/	laus	.	.	1c\	-a
.	.	.	.	2E/	.	.	.
2FF/	-a,	1A\	.	1F/	-a,	2r	.
!	!	!	!	!	!	!LO:LB:g=original	!
*	*ij	*	*	*	*	*	*ij
1F\	i-	.	.	.	.	2c/	i-
*	*	*Xlig	*	*	*	*	*
=36-	=36-	=36-	=36-	=36-	=36-	=36-	=36-
.	.	1G/	.	2r	.	2d/	.
2E\	.	.	.	2c\	et	2e\	.
!LO:SIC:v:t=custos C	!	!	!	!	!	!	!
*	*	*lig	*	*	*	*	*
1F\	-ta	1A\	.	2A/	.	2c/	-ta
.	.	.	.	2.d\	laus	1f\	et
!LO:LB:g=original	!	!	!	!	!	!	!
=37-	=37-	=37-	=37-	=37-	=37-	=37-	=37-
1C/	et	1G/	.	.	.	.	.
.	.	.	.	4c\	.	.	.
.	.	.	.	1c\	tu-	2e\	.
*	*	*Xlig	*	*	*	*	*
*	*	*lig	*	*	*	*	*
1D\	laus	1F/	tu-	.	.	4d\	laus
.	.	.	.	.	.	4e\	.
.	.	.	.	2B-/	.	4f\	.
.	.	.	.	.	.	4d\	.
=38-	=38-	=38-	=38-	=38-	=38-	=38-	=38-
2C/	tu-	1G/	.	2c\	.	4e\	.
.	.	.	.	.	.	4d\	.
2BB-/	.	.	.	4d\	.	1d\	tu-
.	.	.	.	4e\	.	.	.
*	*	*Xlig	*	*	*	*	*
*	*Xij	*lig	*	*	*	*	*
1AA/	-a	1A\	.	2f\	.	.	.
.	.	.	.	2.e\	.	2c/	.
=39-	=39-	=39-	=39-	=39-	=39-	=39-	=39-
1D\	i-	1F/	.	.	.	1d\	-a
*	*	*	*	*	*	*	*Xij
.	.	.	.	4d\	.	.	.
!	!	!	!	!LO:SIC:v:t=custos c	!	!	!
.	.	.	.	1d\	.	.	.
*	*	*Xlig	*	*	*	*	*
2AA/	-ta	1E/	.	.	.	2.e\	et
!	!	!	!	!LO:LB:g=original	!	!	!
2C/	et	.	.	2c\	.	.	.
.	.	.	.	.	.	4f\	.
=40-	=40-	=40-	=40-	=40-	=40-	=40-	=40-
*	*	*lig	*	*	*	*	*
2GG/	laus	1D/	-a,	2d\	.	2g\	.
2BB-/	tu-	.	.	1B-\	.	2d/	laus
!	!	!	!	!	!	!LO:SIC:v:t=custos c	!
0FF/	-a,	1C/	.	.	.	1f\	tu-
.	.	.	.	4A/	-a	.	.
.	.	.	.	4G/	.	.	.
*	*	*Xlig	*	*	*	*	*
!	!	!	!	!	!	!LO:PB:g=original	!
=41-	=41-	=41-	=41-	=41-	=41-	=41-	=41-
*	*	*lig	*	*	*	*	*
.	.	1F/	in	2A/	.	0c\	-a
.	.	.	.	2F/	in	.	.
1C/	in	1E/	.	2G/	.	.	.
.	.	.	.	1A\	fi-	.	.
*	*	*	*	*lig	*	*	*
*	*	*Xlig	*	*	*	*	*
=42-	=42-	=42-	=42-	=42-	=42-	=42-	=42-
*lig	*	*	*	*	*	*	*
1D\	fi-	1F/	fi-	.	.	0r	.
!	!	!	!	!LO:N:acc=#	!	!	!
!	!	!	!	!LO:TX:t=P:problem:# below	!	!	!
.	.	.	.	1BnX\	.	.	.
1E\	.	1G/	.	.	.	.	.
*Xlig	*	*	*	*Xlig	*	*	*
.	.	.	.	2.c\	-nes	.	.
=43-	=43-	=43-	=43-	=43-	=43-	=43-	=43-
2.F\	-nes	1A\	.	.	.	2r	.
.	.	.	.	4B-y/	.	.	.
.	.	.	.	4A/	.	2c/	in
4E\	.	.	.	4G/	.	.	.
*	*	*lig	*	*	*	*	*
1D\	.	1A\	-nes	2.F/	.	2d/	fi-
.	.	.	.	.	.	1f\	.
.	.	.	.	4G/	.	.	.
=44-	=44-	=44-	=44-	=44-	=44-	=44-	=44-
1C/	.	1c\	.	2A/	.	.	.
.	.	.	.	2.G/	.	2e\	-nes
*	*	*Xlig	*	*	*	*	*
*	*	*lig	*	*	*	*	*
2D/	ter-	1A\	.	.	.	2d/	.
.	.	.	.	4F/	.	.	.
2AA/	.	.	.	1F/	.	2c/	.
=45-	=45-	=45-	=45-	=45-	=45-	=45-	=45-
!LO:SIC:v:t=custos C	!	!LO:SIC:v:t=custos A	!	!	!	!	!
2BB-/	.	1G/	.	.	.	2d/	.
!LO:PB:g=original	!	!	!	!LO:SIC:v:t=custos F	!	!	!
2C/	.	.	.	2E/	.	2.g\	ter-
*	*	*Xlig	*	*	*	*	*
!	!	!LO:PB:g=original	!	!LO:LB:g=original	!	!	!
*	*	*lig	*	*	*	*	*
1FF/	-re,	1A\	.	1F/	.	.	.
.	.	.	.	.	.	4f\	.
.	.	.	.	.	.	1f\	.
=46-	=46-	=46-	=46-	=46-	=46-	=46-	=46-
1r	.	1B-\	.	1G/	.	.	.
.	.	.	.	.	.	2e\	-re
*	*	*Xlig	*	*	*	*	*
*	*	*lig	*	*	*	*	*
2r	.	1A\	.	1F/	.	2f\	.
2F\	in	.	.	.	.	2f\	in
=47-	=47-	=47-	=47-	=47-	=47-	=47-	=47-
2E/	fi-	1G/	.	2r	.	2g\	fi-
2C/	-nes	.	.	2c\	in	2e\	-nes
*	*	*Xlig	*	*	*	*	*
1D\	ter-	1F/	ter-	2A/	fi-	2.f\	.
.	.	.	.	2F/	-nes	.	.
.	.	.	.	.	.	8e\L	ter-
.	.	.	.	.	.	8d\J	.
=48-	=48-	=48-	=48-	=48-	=48-	=48-	=48-
*	*	*lig	*	*	*	*	*
!	!	!	!	!	!	!LO:SIC:v:t=custos d	!
0AA/	-re,	1F/	-re	0A\	ter-	2c/	.
!	!	!	!	!	!	!LO:LB:g=original	!
.	.	.	.	.	.	1d\	.
.	.	1E/	.	.	.	.	.
.	.	.	.	.	.	2c/	.
*	*	*Xlig	*	*	*	*	*
=49-	=49-	=49-	=49-	=49-	=49-	=49-	=49-
*	*	*lig	*	*	*	*	*
2r	.	1F/	.	2D/	-re	1d\	-re,
*	*ij	*	*	*	*	*	*
1A\	in	.	.	4D/	ter-	.	.
.	.	.	.	4E/	.	.	.
.	.	1D/	.	4F/	.	2r	.
.	.	.	.	4G/	.	.	.
*	*	*	*	*	*	*	*ij
2F\	.	.	.	4A/	.	2f\	in
.	.	.	.	4B-\	.	.	.
*	*	*Xlig	*	*	*	*	*
=50-	=50-	=50-	=50-	=50-	=50-	=50-	=50-
*	*	*lig	*	*	*	*	*
2G\	fi-	1C/	.	4c\	.	2e\	fi-
.	.	.	.	4d\	.	.	.
1A\	.	.	.	2.e\	.	1c\	.
.	.	1F/	.	.	.	.	.
.	.	.	.	4d\	.	.	.
4G\	.	.	.	1d\	.	2d\	.
4F\	.	.	.	.	.	.	.
*	*	*Xlig	*	*	*	*	*
=51-	=51-	=51-	=51-	=51-	=51-	=51-	=51-
1E\	-nes	1G/	.	.	.	2e\	.
.	.	.	.	2c\	.	2g\	.
*	*	*lig	*	*	*	*	*
!	!	!	!	!LO:SIC:v:t=custos c	!	!	!
2D/	.	1A\	.	2d\	-re,	2f\	.
!	!	!	!	!LO:LB:g=original	!	!	!
2AA/	ter-	.	.	2c\	in	2e\	.
=52-	=52-	=52-	=52-	=52-	=52-	=52-	=52-
2BB-/	.	1G/	.	2d\	fi-	2d\	-nes
*	*	*	*	*	*	*	*Xij
2C/	.	.	.	2c\	-nes	2.e\	.
*	*	*Xlig	*	*	*	*	*
!LO:SIC:v:t=custos FF	!	!	!	!	!	!	!
2AA/	.	1A\	.	0c\	ter-	.	.
.	.	.	.	.	.	4c/	.
!LO:LB:g=original	!	!	!	!	!	!	!
2FF/	.	.	.	.	.	1f\	.
=53-	=53-	=53-	=53-	=53-	=53-	=53-	=53-
*	*	*lig	*	*	*	*	*
1C/	.	1G/l	.	.	.	.	.
.	.	.	.	.	.	2e\	ter-
!	!	!	!	!	!	!LO:SIC:v:t=custos f	!
1FF/;l	-re	1F\;l	.	1c\;<l	-re,	1f;<\l	-re
*	*Xij	*Xlig	*	*	*	*	*Xij
!	!	!	!	!	!	!LO:LB:g=original	!
=54-	=54-	=54-	=54-	=54-	=54-	=54-	=54-
*	*	*	*	*lig	*	*	*
2.F\	Si-	1F/	Sic-	1c\	Si-	1.f\	Si-
4E\	.	.	.	.	.	.	.
2D/	.	1F/	-ut	1d\	.	.	.
4C/	.	.	.	.	.	4e\	.
4BB-/	.	.	.	.	.	4d\	.
*	*	*	*	*Xlig	*	*	*
=55-	=55-	=55-	=55-	=55-	=55-	=55-	=55-
2AA/	.	1A\	au-	1c\	-cut	2e\	.
2FF/	-cut	.	.	.	.	1f\	.
*	*	*lig	*	*	*	*	*
1C/	au-	1G/	-di	2.c\	au-	.	.
.	.	.	.	.	.	2e\	-cut
.	.	.	.	4B-/	.	.	.
=56-	=56-	=56-	=56-	=56-	=56-	=56-	=56-
!	!	!LO:SIC:v:t=custos c	!	!	!	!	!
2FF/	.	1c\	.	4A/	.	2f\	.
.	.	.	.	4G/	.	.	.
2F\	-di-	.	.	2F/	.	2f\	au-
*	*	*Xlig	*	*	*	*	*
!	!	!LO:LB:g=original	!	!	!	!	!
2C/	.	1c\	ui-	2G/	.	2e\	-di-
1F\	.	.	.	1A\	-di-	2.c/	.
=57-	=57-	=57-	=57-	=57-	=57-	=57-	=57-
*	*	*lig	*	*	*	*	*
.	.	1c\	-mus	.	.	.	.
.	.	.	.	.	.	4d/	.
2E\	.	.	.	2G/	-ui-	2e\	.
!	!	!	!	!LO:SIC:v:t=custos A	!	!	!
2.D/	.	1d\	.	2A/	-mus	2.f\	.
!	!	!	!	!LO:PB:g=original	!	!	!
.	.	.	.	2.A/	au-	.	.
!LO:SIC:v:t=custos AA	!	!	!	!	!	!	!
4C/	.	.	.	.	.	4g\	.
*	*	*Xlig	*	*	*	*	*
!LO:LB:g=original	!	!	!	!	!	!	!
=58-	=58-	=58-	=58-	=58-	=58-	=58-	=58-
*	*	*lig	*	*	*	*	*
2.AA/	-ui-	1c\	.	.	.	2.a\	.
.	.	.	.	4G/	.	.	.
.	.	.	.	2.E/	.	.	.
4BB-/	.	.	.	.	.	8g\L	.
.	.	.	.	.	.	8f\J	.
1C/	.	1e\	.	.	.	4e/	.
.	.	.	.	4F/	.	4d/	.
.	.	.	.	1G/	.	1c\	.
*	*	*Xlig	*	*	*	*	*
=59-	=59-	=59-	=59-	=59-	=59-	=59-	=59-
1GG/	-mus,	1d\	.	.	.	.	.
!	!	!	!	!	!	!LO:SIC:v:t=custos c	!
.	.	.	.	4D/	.	2B-/	-ui-
.	.	.	.	4E/	.	.	.
!	!	!	!	!	!	!LO:LB:g=original	!
2r	.	1c\	.	4F/	.	2c/	-mus
.	.	.	.	4G/	.	.	.
2C/	ſi-	.	.	1A\	.	2e\	.
=60-	=60-	=60-	=60-	=60-	=60-	=60-	=60-
2D/	-cut	1Bny\	.	.	.	2f\	au-
2E/	au-	.	.	2G/	.	2g\	-di-
1F\	-di-	1A\	.	1A\	-di-	1c\	.
=61-	=61-	=61-	=61-	=61-	=61-	=61-	=61-
*	*	*lig	*	*	*	*	*
1D\	-ui-	1A\	i-	1F/	-ui-	2d/	.
.	.	.	.	.	.	1f\	.
1C/	-mus,	1c\	.	1G/	-mus,	.	.
.	.	.	.	.	.	2e\	-ui-
*	*	*Xlig	*	*	*	*	*
=62-	=62-	=62-	=62-	=62-	=62-	=62-	=62-
2.BB-/	i-	1d\	.	1B-\	i-	2f\	-m(us),
.	.	.	.	.	.	1f\	i-
4C/	.	.	.	.	.	.	.
*	*	*lig	*	*	*	*	*
1D\	.	1d\	-ta	1A\	-ta	.	.
.	.	.	.	.	.	4e\	.
.	.	.	.	.	.	4d\	.
=63-	=63-	=63-	=63-	=63-	=63-	=63-	=63-
2AA/	-ta	1c\	.	1A\	et	1e\	.
2C/	et	.	.	.	.	.	.
*	*	*Xlig	*	*	*	*	*
2D/	.	1A\	et	2.F/	ui-	2d/	-ta
1F\	ui-	.	.	.	.	2c/	.
!	!	!	!	!LO:SIC:v:t=custos A	!	!	!
.	.	.	.	4G/	.	.	.
!	!	!	!	!LO:LB:g=original	!	!	!
=64-	=64-	=64-	=64-	=64-	=64-	=64-	=64-
*	*	*lig	*	*	*	*	*
.	.	1c\	ui-	2A/	.	2r	.
2E\	.	.	.	2G/	.	2c/	et
!LO:SIC:v:t=custos C	!	!	!	!	!	!	!
1D\	-di-	1A\	.	1F/	.	2d/	.
.	.	.	.	.	.	1f\	ui-
*	*	*Xlig	*	*	*	*	*
!LO:LB:g=original	!	!	!	!	!	!	!
=65-	=65-	=65-	=65-	=65-	=65-	=65-	=65-
1C/	-mus;	1c\	.	2G/	.	.	.
.	.	.	.	1A\	.	4e\	.
!	!	!	!	!	!	!LO:SIC:v:t=custos e	!
.	.	.	.	.	.	4d\	.
*	*	*lig	*	*	*	*	*
!	!	!	!	!	!	!LO:PB:g=original	!
2r	.	1c\	-di-	.	.	1e\	.
2C/	et	.	.	2G/	.	.	.
=66-	=66-	=66-	=66-	=66-	=66-	=66-	=66-
2D/	ui-	1A\	.	2F/	.	2f\	-di-
1F\	.	.	.	1A\	.	2F/	-mus
*	*	*Xlig	*	*	*	*	*
*	*	*lig	*	*	*	*	*ij
.	.	1c\	-mus	.	.	2A/	et
2E\	.	.	.	2G/	-di-	1c\	ui-
=67-	=67-	=67-	=67-	=67-	=67-	=67-	=67-
1D\	.	1d\	.	1F/	-m(us),	.	.
.	.	.	.	.	.	2B-/	-di-
*	*	*Xlig	*	*	*	*	*
*	*	*lig	*	*	*	*	*
2C/	.	1e\	.	2r	.	1c\	-mus
2C/	.	.	.	2G/	et	.	.
=68-	=68-	=68-	=68-	=68-	=68-	=68-	=68-
2FF/	.	1c\	.	2A/	.	2r	.
2AA/	-di-	.	.	1c\	ui-	2e\	et
*	*	*Xlig	*	*	*	*	*
*	*	*lig	*	*	*	*	*
1GG/	-mus	1d\	.	.	.	2.g\	ui-
.	.	.	.	2B-\	-di-	.	.
.	.	.	.	.	.	4f\	.
=69-	=69-	=69-	=69-	=69-	=69-	=69-	=69-
!	!	!LO:SIC:v:t=custos F	!	!	!	!	!
1C/	in	1c\	.	1c\	-mus,	4e\	.
.	.	.	.	.	.	2f\	.
.	.	.	.	.	.	4e\	-di-
*	*	*Xlig	*	*	*	*	*Xij
!	!	!LO:LB:g=original	!	!	!	!	!
2.D/	ci-	1F/	in	1A\	in	2f\	-mus
.	.	.	.	.	.	2f\	in
4C/	.	.	.	.	.	.	.
=70-	=70-	=70-	=70-	=70-	=70-	=70-	=70-
4BB-/	.	1F/	ci-	1.B-\	ci-	1.d\	ci-
4AA/	.	.	.	.	.	.	.
1BB-/	.	.	.	.	.	.	.
.	.	1F/	-ui-	.	.	.	.
2AA/	-ui-	.	.	2c\	-ui-	2c/	-ui-
=71-	=71-	=71-	=71-	=71-	=71-	=71-	=71-
!LO:SIC:v:t=custos FF	!	!	!	!LO:SIC:v:t=custos c	!	!	!
1BB-/	-ta-	1F/	-ta-	1d\	-ta-	1B-/	-ta-
!LO:PB:g=original	!	!	!	!LO:LB:g=original	!	!	!
2FF/	-te	1F/	-te	2c\	-te	2A/	-te
!	!	!	!	!	!	!LO:SIC:v:t=custos c	!
2BB-/	De-	.	.	2d\	De-	2B-/	De-
!	!	!	!	!	!	!LO:LB:g=original	!
=72-	=72-	=72-	=72-	=72-	=72-	=72-	=72-
2AA/	-i	1F/	De-	2c\	-i	2c/	-i
1BB-/	no-	.	.	2.B-\	no-	2.d/	no-
.	.	1F/	-i	.	.	.	.
.	.	.	.	4A/	.	4c/	.
2C/	.	.	.	2.A/	.	1c\	.
=73-	=73-	=73-	=73-	=73-	=73-	=73-	=73-
*	*	*lig	*	*	*	*	*
1D\	.	1F/	noſ-	.	.	.	.
.	.	.	.	4G/	.	.	.
.	.	.	.	1F/	.	2B-/	.
1C/	.	1G/	.	.	.	1c\	-ſtri,
.	.	.	.	2E/	.	.	.
*	*	*Xlig	*	*	*	*	*
=74-	=74-	=74-	=74-	=74-	=74-	=74-	=74-
1FF/	-ſtri.,	1F/	-tri	1F/	-ſtri,	2r	.
.	.	.	.	.	.	2c/	in
1r	.	1F/	in	2r	.	2d/	.
.	.	.	.	2c\	in	2.A/	mon-
=75-	=75-	=75-	=75-	=75-	=75-	=75-	=75-
2r	.	1F/	mo(n)-	2d\	.	.	.
.	.	.	.	.	.	4B-/	-te
2FF/	in	.	.	2A/	mon-	2c/	.
2BB-/	mon-	1F/	-te	2B-\	.	2d/	ſan-
2AA/	.	.	.	2c\	-te	2c/	.
=76-	=76-	=76-	=76-	=76-	=76-	=76-	=76-
*	*	*lig	*	*	*	*	*
1BB-/	-te	1F/	ſan-	1d\	ſa(n)-	1B-/	.
4FF/	ſan-	1A\	.	1.c\	-cto	4A/	-cto
4GG/	.	.	.	.	.	4B-/	.
4AA/	.	.	.	.	.	4c/	.
4BB-/	.	.	.	.	.	4d\	.
*	*	*Xlig	*	*	*	*	*
=77-	=77-	=77-	=77-	=77-	=77-	=77-	=77-
*	*	*lig	*	*	*	*	*
2C/	-cto	1G/	.	.	.	4e\	.
!	!	!	!	!	!	!LO:SIC:v:t=custos g	!
.	.	.	.	.	.	4f\	.
!	!	!	!	!	!	!LO:LB:g=original	!
!	!	!	!	!LO:SIC:v:t=custos B-	!	!	!
4GG/	e-	.	.	2B-/	e-	2g\	.
4AA/	.	.	.	.	.	.	.
!	!	!	!	!LO:LB:g=original	!	!	!
4BB-/	.	1F/	.	1B-\	-ius,	2d/	.
!LO:SIC:v:t=custos D	!	!	!	!	!	!	!
4C/	.	.	.	.	.	.	.
!LO:LB:g=original	!	!	!	!	!	!	!
2D/	.	.	.	.	.	2f\	e-
*	*	*Xlig	*	*	*	*	*
=78-	=78-	=78-	=78-	=78-	=78-	=78-	=78-
*	*	*lig	*	*	*	*	*
2C/	.	1G/	-cto	1r	.	2e\	.
2BB-/	.	.	.	.	.	1d\	.
1AA/	.	1A\	.	2r	.	.	.
.	.	.	.	2A/	in	2c/	.
*	*	*Xlig	*	*	*	*	*
=79-	=79-	=79-	=79-	=79-	=79-	=79-	=79-
*	*	*lig	*	*	*	*	*
1D\	.	1A\	e-	1F/	mon-	2d/	-uis,
*	*	*	*	*	*	*	*ij
.	.	.	.	.	.	1f\	in
2C/	-ius	1c\	.	2G/	-te	.	.
2C/	in	.	.	1A\	ſa(n)-	2e\	.
*	*	*Xlig	*	*	*	*	*
!	!	!LO:LB:g=original	!	!	!	!	!
=80-	=80-	=80-	=80-	=80-	=80-	=80-	=80-
2D\	.	1Bny\	.	.	.	2f\	mon-
2E\	mon-	.	.	2G/	-cto	2g\	-te
*	*	*lig	*	*	*	*	*
1F\	.	1A\	.	1A\	e-	2.c/	ſan-
.	.	.	.	.	.	4d/	.
=81-	=81-	=81-	=81-	=81-	=81-	=81-	=81-
!	!	!LO:SIC:v:t=custos c	!	!	!	!	!
2.C/	-te	1c\	.	1G/	-ius,	4e\	.
.	.	.	.	.	.	4f\	.
.	.	.	.	.	.	2.g\	.
4D/	.	.	.	.	.	.	.
*	*	*Xlig	*	*	*	*	*
!	!	!LO:LB:g=original	!	!	!	!	!
*	*	*lig	*	*	*	*	*
!	!	!LO:TX:t=P:problem:od tej nuty bemol przy kluczu	!	!	!	!	!
2E\	ſan-	1c\	-ius	1r	.	.	.
.	.	.	.	.	.	4f\	.
2F\	.	.	.	.	.	1f\	.
=82-	=82-	=82-	=82-	=82-	=82-	=82-	=82-
1G\	-cto	1B-X\	.	1r	.	.	.
.	.	.	.	.	.	2e\	.
*	*	*Xlig	*	*	*	*	*
*	*	*lig	*	*	*	*	*
4F\	.	1A\	.	2r	.	2.f\	-cto
4E\	e-	.	.	.	.	.	.
*	*	*	*	*	*ij	*	*
4D/	.	.	.	2F/	in	.	.
!	!	!	!	!	!	!LO:SIC:v:t=custos d	!
4C/	.	.	.	.	.	4e\	.
=83-	=83-	=83-	=83-	=83-	=83-	=83-	=83-
1BB-/	.	1B-y\	.	2G/	mon-	1d\	e-
.	.	.	.	1F/	.	.	.
*	*	*Xlig	*	*	*	*	*
*	*	*lig	*	*	*	*	*
1C/	.	1G/	.	.	.	1c\	-ius
*	*	*	*	*	*	*	*Xij
.	.	.	.	2E/	-te	.	.
=84-	=84-	=84-	=84-	=84-	=84-	=84-	=84-
2FF/	-ius	1F/	.	2F/	ſa(n)-	1r	.
*	*ij	*	*	*	*	*	*
2BB-/	in	.	.	2D/	-cto	.	.
*	*	*Xlig	*	*	*	*	*
2AA/	mon-	1A\	.	2E/	e-	2r	.
!LO:LB:g=original	!	!	!	!	!	!	!
2FF/	-te	.	.	2F/	.	2f\	in
=85-	=85-	=85-	=85-	=85-	=85-	=85-	=85-
*	*	*lig	*	*	*	*	*
!	!	!	!	!LO:SIC:v:t=custos c	!	!	!
1C/	ſan-	1G/	.	2C/	-ius	2e\	.
*	*	*	*	*	*Xij	*	*
!	!	!	!	!LO:PB:g=original	!	!	!
.	.	.	.	2c\	in	1c\	mon-
2FF/	.	1c\	.	2A/	mon-	.	.
2AA/	-cto	.	.	2F/	.	1f\	.
*	*	*Xlig	*	*	*	*	*
=86-	=86-	=86-	=86-	=86-	=86-	=86-	=86-
*	*	*lig	*	*	*	*	*
1GG/	e-	1B-y\	.	1G/	-te	.	.
.	.	.	.	.	.	2e\	-te
2FF/	-ius	1c\	.	2A/	ſan-	2f\	ſan-
2.F\	in	.	.	2.A/	-cto	2c/	-cto
*	*	*Xlig	*	*	*	*	*
=87-	=87-	=87-	=87-	=87-	=87-	=87-	=87-
*	*	*lig	*	*	*	*	*
.	.	1A\	.	.	.	2d\	e-
4E\	.	.	.	4G/	e-	.	.
1D\	mon-	.	.	4F/	.	1f\	.
.	.	.	.	4E/	.	.	.
.	.	1F/	.	1D/	.	.	.
4C/	.	.	.	.	.	4e\	.
4BB-/	.	.	.	.	.	4d\	.
*	*	*Xlig	*	*	*	*	*
=88-	=88-	=88-	=88-	=88-	=88-	=88-	=88-
2AA/	.	1A\	.	2E/	.	0c\	.
2FF/	.	.	.	1F/	.	.	.
*	*	*lig	*	*	*	*	*
1C/	-te	1G/l	.	.	.	.	.
.	.	.	.	2E/	.	.	.
=89-	=89-	=89-	=89-	=89-	=89-	=89-	=89-
4FF/	ſanc-	1A\	.	2F/	.	4A/	.
4GG/	.	.	.	.	.	4B-/	.
4AA/	.	.	.	1c\	.	4c/	.
4BB-/	.	.	.	.	.	4d/	.
*	*	*Xlig	*	*	*	*	*
*	*	*lig	*	*	*	*	*
!	!	!	!	!	!	!LO:SIC:v:t=custos f	!
2C/	.	0G\	.	.	.	2e\	.
!	!	!	!	!	!	!LO:PB:g=original	!
2D/	-to	.	.	2B-\	.	1f\	.
=90-	=90-	=90-	=90-	=90-	=90-	=90-	=90-
1C/	e-	.	.	2c\	-ius,	.	.
.	.	.	.	4r	.	2e\	.
!	!	!	!	!LO:SIC:v:t=custos A	!	!	!
.	.	.	.	4c\	in	.	.
!	!	!	!	!LO:LB:g=original	!	!	!
!LO:SIC:v:t=custos F	!	!	!	!	!	!	!
2FF/	-ius	[y00.F\;l	.	2A/	mon-	0f\	-ius
*	*Xij	*	*	*	*	*	*
!LO:LB:g=original	!	!	!	!	!	!	!
2F\	in	.	.	2F/	.	.	.
*	*	*Xlig	*	*	*	*	*
=91-	=91-	=91-	=91-	=91-	=91-	=91-	=91-
2D/	mon-	.	.	1B-\	-te	.	.
2BB-/	.	.	.	.	.	.	.
1F\	-te	.	.	1A\	ſan-	2r	.
.	.	.	.	.	.	2f\	in
=92-	=92-	=92-	=92-	=92-	=92-	=92-	=92-
2BB-/	ſa(n)-	.	.	2.d\	-cto	2d/	mo(n)-
2.D/	-cto	.	.	.	.	2B-/	.
.	.	.	.	4c\	.	.	.
.	.	.	.	4B-/	e-	1f\	-te
4C/	e-	.	.	4A/	.	.	.
4BB-/	.	.	.	1B-\	.	.	.
4AA/	.	.	.	.	.	.	.
=93-	=93-	=93-	=93-	=93-	=93-	=93-	=93-
1BB-/	.	.	.	.	.	2B-/	ſan-
.	.	.	.	4A/	.	1d\	-cto
.	.	.	.	4G/	.	.	.
0.FF/;l	-ius	0.F]yy	.	1A\	.	.	.
.	.	.	.	.	.	4c/	e-
.	.	.	.	.	.	4B-/	.
=94-	=94-	=94-	=94-	=94-	=94-	=94-	=94-
.	.	.	.	0A\;l	-ius;	0c\;l	-ius
==	==	==	==	==	==	==	==
*-	*-	*-	*-	*-	*-	*-	*-
!!!system-decoration: [s1,s2,s3,s4]
!!!RDF**kern: l = terminal long
!!!RDF**kern: > = above
!!!RDF**kern: < = below
!!!ENC: Mateusz Solarz
!!!END: 2022-03-04
!!!AIN: 3 empty 1 tenor
!!!ENC: Leszek Kubiak
!!!END: 2022-03-14
